svg/600/outlined/home_mini.svg

<svg xmlns="http://www.w3.org/2000/svg" width="48" height="48" viewBox="0 -960 960 960"><path d="M350-185.869q-115.652 0-199.892-86.739-84.24-86.74-84.24-207.392 0-39.696 19.066-90.522 19.065-50.826 66.261-96.305 47.196-45.478 127.239-76.674Q358.478-774.696 480-774.696t201.566 31.195q80.043 31.196 127.239 76.674 47.196 45.479 66.544 96.305 19.347 50.826 19.347 90.522 0 120.652-87.022 207.392Q720.652-185.869 600-185.869H350Zm6.957-79.218h236.086q82.131 0 137.435-41.739T806.348-420h-652.13q18.565 71.435 72.087 113.174 53.521 41.739 130.652 41.739ZM480-420Zm0-30Zm-334.913-30h669.826q0-30.87-16.435-68.239-16.435-37.37-55.369-69.804-38.935-32.435-103.305-54.652Q575.435-694.913 480-694.913t-159.804 22.218q-64.37 22.217-103.305 54.652-38.934 32.434-55.369 69.804Q145.087-510.87 145.087-480ZM480-480Z"/></svg>

<svg xmlns="http://www.w3.org/2000/svg" width="48" height="48" viewBox="0 -960 960 960"><path d="M350-185.87q-115.65 0-199.89-86.74Q65.87-359.35 65.87-480q0-39.7 19.06-90.52 19.07-50.83 66.27-96.31 47.19-45.47 127.23-76.67 80.05-31.2 201.57-31.2t201.57 31.2q80.04 31.2 127.23 76.67 47.2 45.48 66.55 96.31Q894.7-519.7 894.7-480q0 120.65-87.03 207.39-87.02 86.74-207.67 86.74H350Zm6.96-79.22h236.08q82.13 0 137.44-41.74 55.3-41.74 75.87-113.17H154.22q18.56 71.43 72.08 113.17 53.53 41.74 130.66 41.74ZM480-420Zm0-30Zm-334.91-30h669.82q0-30.87-16.43-68.24-16.44-37.37-55.37-69.8-38.94-32.44-103.31-54.66-64.37-22.21-159.8-22.21T320.2-672.7q-64.37 22.22-103.31 54.66-38.93 32.43-55.37 69.8-16.43 37.37-16.43 68.24ZM480-480Z"/></svg>
